X:1
T:Hornpipe (Water Music)
C:George Frideric Handel
M:3/4
L:1/8
Q:3/4=100
K:D
|: D>E F>G A2 | d>c BA G2 | F>G AF E2 | D4 D2 |
   E>F GF E2 | A>B AG F2 | G>A FE D2 | E4 F2 |
   G>A Bc d2 | d>c BA G2 | F>G AF E2 | D4 D2 |
   E>F GF E2 | A>G FE D2 | E>F G2 A2 | D6 :|
